contributed-vectors/honeygain.svg

<svg width="192" height="192" viewBox="0 0 192 192" fill="none" xmlns="http://www.w3.org/2000/svg">
<path d="M162 20H30C24.4772 20 20 24.4772 20 30V162C20 167.523 24.4772 172 30 172H162C167.523 172 172 167.523 172 162V30C172 24.4772 167.523 20 162 20Z" fill="#9ABEFF"/>
<path d="M127.442 81.1368C123.821 81.8372 122.031 82.6906 119.192 84.8866C127.259 90.0725 129.701 94.1879 130.442 103.636C127.745 127.624 105.692 129.884 76.0673 116.76L62.5674 121.26L68.9424 110.385C56.1925 105.51 52.0676 88.6364 70.4424 82.2618L107.942 82.6367C109.194 77.8276 110.457 75.6392 113.567 72.5123C116.192 58.2631 130.735 76.2233 116.567 75.5122C114.351 78.0215 113.492 79.6016 112.442 82.6368C113.345 82.6345 113.84 82.7041 114.692 83.0117C118.231 79.3049 121.088 78.048 127.067 76.6371C136.817 67.6376 138.158 89.4376 127.442 81.1368Z" fill="#54688C"/>
<path d="M70.8173 86.7615H98.567L77.5673 104.761C75.3184 105.996 73.9734 106.26 71.5673 106.26C61.4425 106.26 58.4425 90.1363 70.8173 86.7615Z" fill="white"/>
<path d="M99.317 119.76C92.8675 112.244 92.1056 106.957 94.442 96.136L87.6921 101.761C86.6229 108.826 87.8141 112.321 91.0671 118.26L99.317 119.76Z" fill="#F9DE81"/>
<path d="M82.8172 105.885C83.0712 110.373 83.5775 112.664 85.0672 116.385C80.8438 114.707 78.7154 113.383 75.3173 110.385C78.4217 109.469 80.0693 108.511 82.8172 105.885Z" fill="#F9DE81"/>
<path d="M106.442 86.3865C94.442 99.5108 94.3237 108.4 106.067 120.51H111.317C121.452 117.742 125.942 113.385 125.942 103.636C125.942 98.3859 122.567 86.3865 110.192 86.3865H106.442Z" fill="#F9DE81"/>
<ellipse cx="112.426" cy="98.4206" rx="5.62493" ry="5.62469" fill="#54688C"/>
<ellipse cx="111.062" cy="97.0557" rx="1.87498" ry="1.8749" fill="white"/>
</svg>

<svg xmlns="http://www.w3.org/2000/svg" width="192" height="192" fill="none"><path fill="#9ABEFF" d="M162 20H30c-5.523 0-10 4.477-10 10v132c0 5.523 4.477 10 10 10h132c5.523 0 10-4.477 10-10V30c0-5.523-4.477-10-10-10Z"/><path fill="#54688C" d="M127.442 81.137c-3.621.7-5.411 1.554-8.25 3.75 8.067 5.186 10.509 9.3 11.25 18.749-2.697 23.988-24.75 26.248-54.375 13.124l-13.5 4.5 6.375-10.875c-12.75-4.875-16.874-21.749 1.5-28.123l37.5.375c1.252-4.81 2.515-6.998 5.625-10.125 2.625-14.249 17.168 3.711 3 3-2.216 2.51-3.075 4.09-4.125 7.125.903-.002 1.398.067 2.25.375 3.539-3.707 6.396-4.964 12.375-6.375 9.75-9 11.091 12.8.375 4.5Z"/><path fill="#fff" d="M70.817 86.761h27.75l-21 18c-2.249 1.235-3.594 1.499-6 1.499-10.124 0-13.124-16.124-.75-19.499Z"/><path fill="#F9DE81" d="M99.317 119.76c-6.45-7.516-7.211-12.803-4.875-23.624l-6.75 5.625c-1.07 7.065.122 10.56 3.375 16.499l8.25 1.5ZM82.817 105.885c.254 4.488.76 6.779 2.25 10.5-4.223-1.678-6.352-3.002-9.75-6 3.105-.916 4.752-1.874 7.5-4.5Z"/><path fill="#F9DE81" d="M106.442 86.386c-12 13.125-12.118 22.014-.375 34.124h5.25c10.135-2.768 14.625-7.125 14.625-16.874 0-5.25-3.375-17.25-15.75-17.25h-3.75Z"/><circle cx="112.426" cy="98.421" r="5.625" fill="#54688C"/><circle cx="111.062" cy="97.056" r="1.875" fill="#fff"/></svg>
